X: 5025
T: Brian Boru's March
R: jig
M: 6/8
K: Aminor
|:e3/2d3/2"Am"c-|c2BA2A-|A2e3/2d3/2"F"c-|c2BA2A-|A2dc3|"G"B2AG2G-|G2d3/2c3/2"Em"B-|B2A G2G-|G2e d3|
"Am"c2BA2A-|A2e3/2d3/2"F"c-|c2BA2A-|A4 z E|"D"A2c d2"E"e-|e3 d3|"Am"c2B A2A-|A6|
z3 e2"Am"a-|a2g e2a-|a3- a2"F"a-|a2g e2g-|g3- g2"G"g-|g2a b2g-|g2e "Em"dd2-|d2e g2a-|a3- a2"Am"a-|
a2g e2a-|a3- a2"F"a-|a2g e2"D"d-|d2e g2"Em"e-|e3 d3|"Am"c2B A2A-|A6-|A2:|

